X: 40232
T: Tip-Top, The
R: polka
M: 2/4
K: Dmajor
M:4/4
FG|A2 A2 A2 B2|F2 F2 F2 DE|F2 F2 F2 A2|E6 EF|
G2 G2 G2 B2|E2 E2 E2 EF|G2 G2 E2 A2|D2 D2 D2||
Bc|d2 B2 B2 Bc|d2 A2 A2 DE|F2 F2 E2 D2|A2 A2 A2 Bc|
d2 B2 BA Bc|d2 A2 A2 EF|GF GB A2 c2|d2 d2 d2||
K: GMaj
Bc|d2 d2 ^cd e2|B2 B2 B2 GA|B2 B2 Bc d2|A6 AB|
c2 c2 cd e2|A2 A2 A2 AB|c2 c2 AB d2|G6||
ef|g2 e2 e2 ef|g2 d2 d2 GA|B2 B2 AB G2|d6 ef|
g2 e2 edef|g2 d2 d2 AB|cBAG F2 d2|G6||

